!!!SOCIAL_FUNCTION:	dream songs
!!!PDT:	1913
!!!OTL: No_99_Song_of_the_Buffalo.krn
!!!REG: Great_Lakes
!!!LANG: Non-Tone
!!!LING_GROUP: Algonquin
**kern	**kern
*staff2	*staff1
=1-	=1-
*clefF4	*clefF4
*k[f#c#g#]	*k[f#c#g#]
*M2/4	*M2/4
8GG#/L	8c#\L
8GG#/J	8c#\J
8GG#/L	8c#\L
8GG#/J	16.c#\L
.	32c#\JJk
=2	=2
8GG#/L	4c#\
8GG#/J	.
8GG#/L	4c#\
8GG#/J	.
=3	=3
2r	8c#\L
.	8c#\J
.	8c#\L
.	16.B\L
.	32A\JJk
=4	=4
2r	4A\
.	4A\
=5	=5
2r	8c#\L
.	8c#\J
.	8A\L
.	8A\J
=6||	=6||
*M3/4	*M3/4
2.r	8c#\L
.	8c#\J
.	8A\L
.	8A\J
.	8A\L
.	8F#\J
=7	=7
2.r	2F#\
.	4F#\
=8||	=8||
*M2/4	*M2/4
2r	8A\L
.	8A\J
.	8A\L
.	16.A\L
.	32F#\JJk
=9	=9
2r	4F#\
.	4F#\
=10	=10
2r	8A\L
.	8A\J
.	8A\L
.	16.A\L
.	32A\JJk
=11	=11
2r	4A\
.	[4A\
=12	=12
2r	4.A\]
.	8A\
=13	=13
2r	4A\
.	8.A\L
.	16A\Jk
=14	=14
2r	2A\
=15||	=15||
*M3/4	*M3/4
2.r	8c#\L
.	8c#\J
.	8c#\L
.	8c#\J
.	8.c#\L
.	16B\Jk
=16	=16
2.r	4B\
.	4A\
.	8.F#\L
.	16F#\Jk
=17	=17
2.r	2F#\
.	8.D\L
.	16D\Jk
=18	=18
2.r	2.D\
=19||	=19||
*M2/4	*M2/4
2r	8F#\L
.	8F#\J
.	8F#\L
.	8F#\J
=20	=20
2r	8.F#\L
.	16D\Jk
.	4D\
=21||	=21||
*M3/4	*M3/4
2.r	8F#\L
.	8F#\J
.	16F#\LK
.	8.F#\J
.	8.F#\L
.	16F#\Jk
=22	=22
2.r	[2F#\
.	8.F#\L]
.	16F#\Jk
=23||	=23||
*M2/4	*M2/4
2r	4F#\
.	8.F#\L
.	16F#\Jk
=24||	=24||
*M3/4	*M3/4
2.r	[2F#\
.	8.F#\L]
.	16F#\Jk
=25	=25
2.r	2.F#\
==	==
*-	*-
